flaticon/medical/skeleton.svg

<svg xmlns="http://www.w3.org/2000/svg" width="32" height="32" viewBox="0 0 24 24">
    <path d="M9.152344 17.085938C8.253906 17.085938 7.527344 17.816406 7.527344 18.710938 7.527344 19.609375 8.253906 20.339844 9.152344 20.339844 10.050781 20.339844 10.78125 19.609375 10.78125 18.710938 10.78125 17.816406 10.050781 17.085938 9.152344 17.085938zM9.152344 19.527344C8.703125 19.527344 8.339844 19.160156 8.339844 18.710938 8.339844 18.261719 8.703125 17.898438 9.152344 17.898438 9.601562 17.898438 9.964844 18.261719 9.964844 18.710938 9.964844 19.160156 9.601562 19.527344 9.152344 19.527344zM14.441406 20.339844C15.339844 20.339844 16.066406 19.609375 16.066406 18.710938 16.066406 17.816406 15.339844 17.085938 14.441406 17.085938 13.542969 17.085938 12.8125 17.816406 12.8125 18.710938 12.8125 19.609375 13.542969 20.339844 14.441406 20.339844zM14.441406 17.898438C14.890625 17.898438 15.253906 18.261719 15.253906 18.710938 15.253906 19.160156 14.890625 19.527344 14.441406 19.527344 13.992188 19.527344 13.628906 19.160156 13.628906 18.710938 13.628906 18.261719 13.992188 17.898438 14.441406 17.898438zM14.441406 17.898438"/>
    <path d="M 21.355469 5.695312 C 21.28125 5.695312 21.210938 5.707031 21.140625 5.71875 L 17.871094 2.449219 C 18.015625 2.207031 18.101562 1.929688 18.101562 1.628906 C 18.101562 0.730469 17.371094 0 16.472656 0 C 15.714844 0 15.078125 0.527344 14.902344 1.230469 C 14.882812 1.230469 14.867188 1.21875 14.847656 1.21875 L 12.40625 1.21875 C 12.40625 0.996094 12.222656 0.8125 12 0.8125 C 11.777344 0.8125 11.59375 0.996094 11.59375 1.21875 L 9.152344 1.21875 C 9.132812 1.21875 9.117188 1.230469 9.097656 1.230469 C 8.921875 0.527344 8.285156 0 7.527344 0 C 6.628906 0 5.898438 0.730469 5.898438 1.628906 C 5.898438 1.929688 5.984375 2.207031 6.128906 2.449219 L 2.859375 5.71875 C 2.789062 5.707031 2.71875 5.695312 2.644531 5.695312 C 1.746094 5.695312 1.015625 6.425781 1.015625 7.320312 C 1.015625 8.21875 1.746094 8.949219 2.644531 8.949219 C 2.710938 8.949219 2.769531 8.9375 2.835938 8.929688 L 6.398438 13.265625 C 6.476562 13.363281 6.59375 13.414062 6.710938 13.414062 C 6.804688 13.414062 6.894531 13.386719 6.96875 13.324219 C 7.144531 13.179688 7.167969 12.925781 7.027344 12.75 L 3.625 8.613281 C 4.015625 8.3125 4.269531 7.847656 4.269531 7.320312 C 4.269531 6.8125 4.03125 6.363281 3.664062 6.0625 L 6.703125 3.023438 C 6.945312 3.167969 7.226562 3.253906 7.527344 3.253906 C 8.285156 3.253906 8.921875 2.730469 9.097656 2.023438 C 9.117188 2.023438 9.132812 2.035156 9.152344 2.035156 L 11.59375 2.035156 L 11.59375 3.660156 L 9.152344 3.660156 C 8.929688 3.660156 8.746094 3.84375 8.746094 4.066406 C 8.746094 4.292969 8.929688 4.472656 9.152344 4.472656 L 11.59375 4.472656 L 11.59375 5.289062 L 8.339844 5.289062 C 8.113281 5.289062 7.933594 5.46875 7.933594 5.695312 C 7.933594 5.917969 8.113281 6.101562 8.339844 6.101562 L 11.59375 6.101562 L 11.59375 6.914062 L 6.710938 6.914062 C 6.488281 6.914062 6.304688 7.097656 6.304688 7.320312 C 6.304688 7.546875 6.488281 7.730469 6.710938 7.730469 L 11.59375 7.730469 L 11.59375 8.542969 L 6.710938 8.542969 C 6.488281 8.542969 6.304688 8.722656 6.304688 8.949219 C 6.304688 9.175781 6.488281 9.355469 6.710938 9.355469 L 11.59375 9.355469 L 11.59375 10.167969 L 8.339844 10.167969 C 8.113281 10.167969 7.933594 10.351562 7.933594 10.578125 C 7.933594 10.800781 8.113281 10.984375 8.339844 10.984375 L 11.59375 10.984375 L 11.59375 11.796875 L 9.152344 11.796875 C 8.929688 11.796875 8.746094 11.976562 8.746094 12.203125 C 8.746094 12.429688 8.929688 12.609375 9.152344 12.609375 L 11.59375 12.609375 L 11.59375 14.644531 L 10.371094 14.644531 C 9.984375 14.644531 9.601562 14.757812 9.269531 14.972656 L 8.875 15.351562 C 8.535156 15.6875 8.0625 15.828125 7.640625 15.71875 C 6.941406 15.53125 5.859375 15.730469 5.242188 16.289062 C 5.191406 16.28125 5.140625 16.269531 5.085938 16.269531 C 4.1875 16.269531 3.457031 17 3.457031 17.898438 C 3.457031 18.65625 3.976562 19.285156 4.679688 19.46875 L 4.679688 23.59375 C 4.679688 23.816406 4.859375 24 5.085938 24 C 5.308594 24 5.492188 23.816406 5.492188 23.59375 L 5.492188 19.46875 C 5.527344 19.457031 5.566406 19.445312 5.601562 19.433594 L 8.507812 21.949219 C 9.199219 22.640625 10.242188 22.785156 11.046875 22.296875 C 11.425781 22.066406 11.714844 21.726562 11.875 21.320312 C 11.898438 21.261719 11.941406 21.214844 12.003906 21.1875 C 12.0625 21.214844 12.105469 21.261719 12.128906 21.320312 C 12.292969 21.726562 12.578125 22.066406 12.960938 22.296875 C 13.28125 22.492188 13.640625 22.585938 13.996094 22.585938 C 14.535156 22.585938 15.070312 22.375 15.46875 21.976562 L 18.492188 19.460938 C 18.496094 19.464844 18.503906 19.464844 18.507812 19.46875 L 18.507812 23.59375 C 18.507812 23.816406 18.691406 24 18.914062 24 C 19.140625 24 19.320312 23.816406 19.320312 23.59375 L 19.320312 19.46875 C 20.019531 19.285156 20.542969 18.65625 20.542969 17.898438 C 20.542969 17 19.8125 16.269531 18.914062 16.269531 C 18.867188 16.269531 18.820312 16.28125 18.773438 16.285156 C 18.179688 15.804688 17.183594 15.574219 16.566406 15.675781 C 16.011719 15.761719 15.496094 15.585938 15.191406 15.207031 L 14.898438 14.84375 L 14.804688 14.804688 C 14.554688 14.699219 14.289062 14.644531 14.011719 14.644531 L 12.40625 14.644531 L 12.40625 12.609375 L 14.847656 12.609375 C 15.070312 12.609375 15.253906 12.429688 15.253906 12.203125 C 15.253906 11.976562 15.070312 11.796875 14.847656 11.796875 L 12.40625 11.796875 L 12.40625 10.984375 L 15.660156 10.984375 C 15.886719 10.984375 16.066406 10.800781 16.066406 10.578125 C 16.066406 10.351562 15.886719 10.167969 15.660156 10.167969 L 12.40625 10.167969 L 12.40625 9.355469 L 17.289062 9.355469 C 17.511719 9.355469 17.695312 9.175781 17.695312 8.949219 C 17.695312 8.722656 17.511719 8.542969 17.289062 8.542969 L 12.40625 8.542969 L 12.40625 7.730469 L 17.289062 7.730469 C 17.511719 7.730469 17.695312 7.546875 17.695312 7.320312 C 17.695312 7.097656 17.511719 6.914062 17.289062 6.914062 L 12.40625 6.914062 L 12.40625 6.101562 L 15.660156 6.101562 C 15.886719 6.101562 16.066406 5.917969 16.066406 5.695312 C 16.066406 5.46875 15.886719 5.289062 15.660156 5.289062 L 12.40625 5.289062 L 12.40625 4.472656 L 14.847656 4.472656 C 15.070312 4.472656 15.253906 4.292969 15.253906 4.066406 C 15.253906 3.84375 15.070312 3.660156 14.847656 3.660156 L 12.40625 3.660156 L 12.40625 2.035156 L 14.847656 2.035156 C 14.867188 2.035156 14.882812 2.023438 14.902344 2.023438 C 15.078125 2.730469 15.714844 3.253906 16.472656 3.253906 C 16.773438 3.253906 17.054688 3.167969 17.296875 3.023438 L 20.335938 6.0625 C 19.96875 6.363281 19.730469 6.8125 19.730469 7.320312 C 19.730469 7.847656 19.984375 8.3125 20.375 8.613281 L 16.972656 12.75 C 16.832031 12.925781 16.855469 13.179688 17.03125 13.324219 C 17.105469 13.386719 17.199219 13.414062 17.289062 13.414062 C 17.40625 13.414062 17.523438 13.363281 17.601562 13.265625 L 21.164062 8.929688 C 21.230469 8.9375 21.289062 8.949219 21.355469 8.949219 C 22.253906 8.949219 22.984375 8.21875 22.984375 7.320312 C 22.984375 6.425781 22.253906 5.695312 21.355469 5.695312 Z M 1.832031 7.320312 C 1.832031 6.875 2.195312 6.507812 2.644531 6.507812 C 3.09375 6.507812 3.457031 6.875 3.457031 7.320312 C 3.457031 7.769531 3.09375 8.136719 2.644531 8.136719 C 2.195312 8.136719 1.832031 7.769531 1.832031 7.320312 Z M 7.527344 2.441406 C 7.078125 2.441406 6.710938 2.074219 6.710938 1.628906 C 6.710938 1.179688 7.078125 0.8125 7.527344 0.8125 C 7.972656 0.8125 8.339844 1.179688 8.339844 1.628906 C 8.339844 2.074219 7.972656 2.441406 7.527344 2.441406 Z M 4.269531 17.898438 C 4.269531 17.449219 4.636719 17.085938 5.085938 17.085938 C 5.132812 17.085938 5.179688 17.089844 5.226562 17.097656 L 5.285156 17.113281 C 5.417969 17.148438 5.535156 17.214844 5.632812 17.300781 C 5.632812 17.300781 5.636719 17.304688 5.636719 17.304688 C 5.660156 17.328125 5.683594 17.351562 5.703125 17.375 C 5.714844 17.390625 5.726562 17.402344 5.738281 17.417969 C 5.753906 17.4375 5.765625 17.460938 5.78125 17.484375 C 5.792969 17.503906 5.804688 17.523438 5.8125 17.546875 C 5.824219 17.566406 5.832031 17.585938 5.84375 17.609375 C 5.851562 17.636719 5.859375 17.664062 5.867188 17.695312 C 5.875 17.710938 5.878906 17.730469 5.882812 17.746094 C 5.890625 17.796875 5.898438 17.847656 5.898438 17.898438 C 5.898438 17.964844 5.886719 18.03125 5.871094 18.097656 C 5.867188 18.109375 5.863281 18.121094 5.859375 18.132812 C 5.839844 18.191406 5.820312 18.246094 5.789062 18.300781 C 5.785156 18.304688 5.785156 18.304688 5.78125 18.308594 C 5.710938 18.429688 5.605469 18.53125 5.476562 18.605469 L 5.398438 18.648438 C 5.300781 18.6875 5.195312 18.710938 5.085938 18.710938 C 4.636719 18.710938 4.269531 18.347656 4.269531 17.898438 Z M 19.730469 17.898438 C 19.730469 18.347656 19.363281 18.710938 18.914062 18.710938 C 18.808594 18.710938 18.707031 18.691406 18.617188 18.652344 L 18.578125 18.636719 C 18.507812 18.601562 18.445312 18.5625 18.386719 18.511719 C 18.382812 18.507812 18.378906 18.507812 18.378906 18.503906 C 18.269531 18.40625 18.191406 18.285156 18.144531 18.148438 C 18.140625 18.132812 18.136719 18.121094 18.132812 18.105469 C 18.113281 18.039062 18.101562 17.96875 18.101562 17.898438 C 18.101562 17.847656 18.109375 17.792969 18.117188 17.746094 C 18.121094 17.730469 18.125 17.71875 18.128906 17.703125 C 18.136719 17.667969 18.148438 17.632812 18.160156 17.597656 C 18.167969 17.585938 18.171875 17.570312 18.179688 17.558594 C 18.195312 17.523438 18.210938 17.496094 18.230469 17.464844 C 18.238281 17.453125 18.246094 17.441406 18.253906 17.425781 C 18.273438 17.398438 18.296875 17.375 18.320312 17.347656 C 18.332031 17.335938 18.34375 17.324219 18.355469 17.3125 C 18.375 17.292969 18.402344 17.273438 18.425781 17.253906 C 18.441406 17.242188 18.457031 17.230469 18.472656 17.21875 C 18.488281 17.207031 18.507812 17.199219 18.523438 17.191406 C 18.589844 17.15625 18.660156 17.125 18.734375 17.109375 L 18.769531 17.101562 C 18.816406 17.089844 18.863281 17.085938 18.914062 17.085938 C 19.363281 17.085938 19.730469 17.449219 19.730469 17.898438 Z M 14.398438 15.519531 L 14.558594 15.714844 C 15.050781 16.328125 15.847656 16.609375 16.695312 16.476562 C 16.992188 16.429688 17.460938 16.507812 17.847656 16.671875 C 17.828125 16.683594 17.820312 16.703125 17.804688 16.714844 C 17.765625 16.75 17.730469 16.789062 17.699219 16.828125 C 17.660156 16.871094 17.621094 16.914062 17.585938 16.964844 C 17.558594 17.003906 17.535156 17.050781 17.511719 17.09375 C 17.480469 17.144531 17.449219 17.191406 17.425781 17.246094 C 17.402344 17.300781 17.386719 17.359375 17.367188 17.417969 C 17.355469 17.464844 17.335938 17.511719 17.324219 17.558594 C 17.300781 17.667969 17.289062 17.78125 17.289062 17.898438 C 17.289062 18.007812 17.300781 18.113281 17.320312 18.214844 C 17.335938 18.296875 17.363281 18.371094 17.390625 18.449219 C 17.398438 18.46875 17.402344 18.492188 17.410156 18.511719 C 17.445312 18.597656 17.492188 18.679688 17.539062 18.757812 C 17.542969 18.765625 17.546875 18.777344 17.554688 18.785156 C 17.605469 18.863281 17.664062 18.933594 17.730469 19.003906 C 17.734375 19.011719 17.738281 19.019531 17.746094 19.023438 L 14.921875 21.375 C 14.5 21.792969 13.855469 21.886719 13.382812 21.601562 C 13.152344 21.460938 12.984375 21.265625 12.890625 21.019531 C 12.753906 20.675781 12.449219 20.429688 12.074219 20.363281 L 12.003906 20.351562 L 11.933594 20.363281 C 11.558594 20.429688 11.253906 20.675781 11.117188 21.019531 C 11.019531 21.265625 10.855469 21.460938 10.625 21.601562 C 10.152344 21.886719 9.503906 21.792969 9.0625 21.355469 L 6.308594 18.96875 C 6.316406 18.953125 6.324219 18.9375 6.335938 18.925781 C 6.382812 18.871094 6.425781 18.8125 6.464844 18.75 C 6.484375 18.722656 6.496094 18.695312 6.511719 18.664062 C 6.542969 18.609375 6.574219 18.550781 6.597656 18.492188 C 6.613281 18.445312 6.625 18.402344 6.640625 18.355469 C 6.652344 18.304688 6.671875 18.257812 6.683594 18.207031 C 6.699219 18.105469 6.710938 18.003906 6.710938 17.898438 C 6.710938 17.78125 6.699219 17.664062 6.671875 17.554688 C 6.667969 17.523438 6.652344 17.492188 6.644531 17.460938 C 6.621094 17.382812 6.597656 17.304688 6.566406 17.234375 C 6.550781 17.199219 6.53125 17.167969 6.511719 17.136719 C 6.476562 17.070312 6.441406 17.003906 6.398438 16.945312 C 6.375 16.914062 6.351562 16.886719 6.324219 16.859375 C 6.277344 16.800781 6.226562 16.746094 6.167969 16.695312 C 6.15625 16.683594 6.148438 16.671875 6.136719 16.660156 C 6.546875 16.476562 7.085938 16.410156 7.433594 16.503906 C 8.132812 16.6875 8.90625 16.46875 9.449219 15.929688 L 9.746094 15.636719 C 9.9375 15.519531 10.152344 15.457031 10.371094 15.457031 L 14.011719 15.457031 C 14.144531 15.457031 14.273438 15.480469 14.398438 15.519531 Z M 15.660156 1.628906 C 15.660156 1.179688 16.027344 0.8125 16.472656 0.8125 C 16.921875 0.8125 17.289062 1.179688 17.289062 1.628906 C 17.289062 2.074219 16.921875 2.441406 16.472656 2.441406 C 16.027344 2.441406 15.660156 2.074219 15.660156 1.628906 Z M 21.355469 8.136719 C 20.90625 8.136719 20.542969 7.769531 20.542969 7.320312 C 20.542969 6.875 20.90625 6.507812 21.355469 6.507812 C 21.804688 6.507812 22.167969 6.875 22.167969 7.320312 C 22.167969 7.769531 21.804688 8.136719 21.355469 8.136719 Z M 21.355469 8.136719"/>
</svg>

<svg xmlns="http://www.w3.org/2000/svg" width="32" height="32" viewBox="0 0 24 24">
    <path d="M9.152 17.086a1.626 1.626 0 1 0 .003 3.252 1.626 1.626 0 0 0-.003-3.252zm0 2.441a.815.815 0 0 1 0-1.629.815.815 0 0 1 0 1.629zm0 0M14.441 20.34a1.627 1.627 0 1 0-.004-3.254 1.627 1.627 0 0 0 .004 3.254zm0-2.442a.815.815 0 0 1 0 1.629.815.815 0 0 1 0-1.629zm0 0"/>
    <path d="M21.355 5.695c-.074 0-.144.012-.214.024l-3.27-3.27c.145-.242.23-.52.23-.82A1.63 1.63 0 0 0 16.474 0c-.758 0-1.395.527-1.57 1.23-.02 0-.036-.011-.055-.011h-2.442A.408.408 0 0 0 12 .812a.408.408 0 0 0-.406.407H9.152c-.02 0-.035.011-.054.011A1.625 1.625 0 0 0 7.528 0a1.63 1.63 0 0 0-1.63 1.629c0 .3.086.578.23.82L2.86 5.72c-.07-.012-.14-.024-.214-.024a1.63 1.63 0 0 0-1.63 1.625c0 .899.731 1.63 1.63 1.63.066 0 .125-.012.19-.02l3.563 4.336a.4.4 0 0 0 .313.148.392.392 0 0 0 .258-.09.409.409 0 0 0 .058-.574L3.625 8.613c.39-.3.645-.765.645-1.293 0-.508-.239-.957-.606-1.258l3.04-3.039c.241.145.523.23.823.23a1.62 1.62 0 0 0 1.57-1.23c.02 0 .036.012.055.012h2.442V3.66H9.152a.406.406 0 1 0 0 .812h2.442v.817H8.34a.406.406 0 1 0 0 .813h3.254v.812H6.71a.408.408 0 0 0 0 .816h4.883v.813H6.71a.406.406 0 1 0 0 .812h4.883v.813H8.34a.407.407 0 0 0-.406.41c0 .223.18.406.406.406h3.254v.813H9.152a.406.406 0 1 0 0 .812h2.442v2.036H10.37c-.387 0-.77.113-1.101.328l-.395.379c-.34.335-.813.476-1.234.367-.7-.188-1.782.011-2.399.57-.05-.008-.101-.02-.156-.02a1.625 1.625 0 1 0-.406 3.2v4.125a.406.406 0 1 0 .812 0v-4.125l.11-.035 2.906 2.515c.691.692 1.734.836 2.539.348a2 2 0 0 0 .828-.977.239.239 0 0 1 .129-.133.245.245 0 0 1 .125.133c.164.407.45.746.832.977.32.195.68.289 1.035.289.54 0 1.074-.211 1.473-.61l3.023-2.515c.004.004.012.004.016.008v4.125a.406.406 0 1 0 .813 0v-4.125a1.63 1.63 0 0 0 1.222-1.57 1.63 1.63 0 0 0-1.629-1.63c-.047 0-.094.012-.14.016-.594-.48-1.59-.71-2.208-.61-.554.087-1.07-.09-1.375-.468l-.293-.363-.093-.04a2.025 2.025 0 0 0-.793-.16h-1.606V12.61h2.442a.406.406 0 1 0 0-.812h-2.442v-.813h3.254a.406.406 0 0 0 .406-.406c0-.226-.18-.41-.406-.41h-3.254v-.813h4.883a.406.406 0 1 0 0-.812h-4.883V7.73h4.883a.408.408 0 0 0 0-.816h-4.883v-.812h3.254a.406.406 0 1 0 0-.813h-3.254v-.816h2.442a.406.406 0 1 0 0-.813h-2.442V2.035h2.442c.02 0 .035-.012.054-.012a1.62 1.62 0 0 0 1.57 1.23c.301 0 .583-.085.825-.23l3.039 3.04c-.367.3-.606.75-.606 1.257 0 .528.254.992.645 1.293l-3.402 4.137a.409.409 0 0 0 .058.574.4.4 0 0 0 .258.09.4.4 0 0 0 .313-.148l3.562-4.336c.066.008.125.02.191.02a1.63 1.63 0 0 0 1.63-1.63 1.63 1.63 0 0 0-1.63-1.625zM1.832 7.32c0-.445.363-.812.813-.812a.814.814 0 0 1 0 1.629.815.815 0 0 1-.813-.817zm5.695-4.879a.818.818 0 0 1-.816-.812c0-.45.367-.817.816-.817.446 0 .813.368.813.817a.817.817 0 0 1-.813.812zM4.27 17.898a.815.815 0 0 1 .957-.8l.058.015c.133.035.25.102.348.188l.004.004c.023.023.047.047.066.07.012.016.024.027.035.043.016.02.028.043.043.066.012.02.024.04.032.063.011.02.019.039.03.062.009.028.016.055.024.086.008.016.012.035.016.051.008.05.015.102.015.152a.874.874 0 0 1-.027.2l-.012.035a.9.9 0 0 1-.07.168l-.008.008a.824.824 0 0 1-.304.296l-.079.043a.815.815 0 0 1-1.129-.75zm15.46 0a.815.815 0 0 1-1.113.754l-.039-.015a.897.897 0 0 1-.191-.125c-.004-.004-.008-.004-.008-.008a.834.834 0 0 1-.234-.356l-.012-.043a.738.738 0 0 1-.016-.359l.012-.043c.008-.035.02-.07.031-.105.008-.012.012-.028.02-.04a.716.716 0 0 1 .05-.093c.008-.012.016-.024.024-.04.02-.027.043-.05.066-.077l.035-.035c.02-.02.047-.04.07-.06.016-.01.032-.023.048-.034.015-.012.035-.02.05-.028a.816.816 0 0 1 .211-.082l.036-.007a.815.815 0 0 1 .96.797zm-5.332-2.378l.16.195c.493.613 1.29.894 2.137.762.297-.047.766.03 1.153.195-.02.012-.028.031-.043.043a.954.954 0 0 0-.106.113c-.039.043-.078.086-.113.137-.027.039-.05.086-.074.129-.032.05-.063.097-.086.152-.024.055-.04.113-.059.172-.012.047-.031.094-.043.14a1.618 1.618 0 0 0-.004.657c.016.082.043.156.07.234.008.02.012.043.02.063.035.086.082.168.13.246.003.008.007.02.015.027.05.078.11.149.175.219.004.008.008.016.016.02l-2.824 2.351c-.422.418-1.067.512-1.54.227a1.155 1.155 0 0 1-.491-.582 1.07 1.07 0 0 0-.817-.657l-.07-.011-.07.011a1.07 1.07 0 0 0-.817.657 1.174 1.174 0 0 1-.492.582c-.473.285-1.121.191-1.563-.247L6.31 18.97a.161.161 0 0 1 .027-.043c.047-.055.09-.113.129-.176.02-.027.031-.055.047-.086a1.41 1.41 0 0 0 .086-.172c.015-.047.027-.09.043-.137.011-.05.03-.097.043-.148.015-.102.027-.203.027-.309 0-.117-.012-.234-.04-.343-.003-.032-.019-.063-.026-.094a1.929 1.929 0 0 0-.079-.227c-.015-.035-.035-.066-.054-.097-.035-.067-.07-.133-.114-.192a.781.781 0 0 0-.074-.086 1.236 1.236 0 0 0-.156-.164c-.012-.011-.02-.023-.031-.035.41-.183.949-.25 1.297-.156.699.183 1.472-.035 2.015-.574l.297-.293c.191-.117.406-.18.625-.18h3.64c.134 0 .262.023.387.063zM15.66 1.629c0-.45.367-.817.813-.817.449 0 .816.368.816.817a.818.818 0 0 1-.816.812.817.817 0 0 1-.813-.812zm5.695 6.508a.815.815 0 0 1 0-1.63.814.814 0 0 1 0 1.63zm0 0"/>
</svg>
